img/menu_fb.svg

<svg height="20" viewBox="0 0 20 20" width="20" xmlns="http://www.w3.org/2000/svg"><path d="m20 18.86a1.14 1.14 0 0 1 -1.14 1.14h-17.72a1.14 1.14 0 0 1 -1.14-1.14v-17.72a1.14 1.14 0 0 1 1.14-1.14h17.72a1.14 1.14 0 0 1 1.14 1.14zm-5.77-.29v-7.35h2.77l.12-2.65h-2.89v-1.93c0-.73.15-1.17 1.1-1.17h1.67l.09-2.47a16.73 16.73 0 0 0 -1.87-.1c-2.64 0-3.79 1.63-3.79 3.41v2.26h-1.95v2.65h1.95v7.35z" fill="#fff"/></svg>

<svg xmlns="http://www.w3.org/2000/svg" width="20" height="20" viewBox="0 0 20 20"><defs><style>.cls-1{fill:#fff;}</style></defs><g id="レイヤー_2" data-name="レイヤー 2"><g id="RollOver"><path class="cls-1" d="M20,18.86A1.14,1.14,0,0,1,18.86,20H1.14A1.14,1.14,0,0,1,0,18.86V1.14A1.14,1.14,0,0,1,1.14,0H18.86A1.14,1.14,0,0,1,20,1.14Zm-5.77-.29V11.22H17l.12-2.65H14.23V6.64c0-.73.15-1.17,1.1-1.17H17L17.09,3a16.73,16.73,0,0,0-1.87-.1c-2.64,0-3.79,1.63-3.79,3.41V8.57H9.48v2.65h1.95v7.35Z"/></g></g></svg>
